!!!!SEGMENT: pl-cz--iii-594b--006_rzepko-adolf--missa-agnus-dei.krn
!!!cenid: 18xx:1139
!!!COM: Rzepko, Adolf
!!!COM-rismid: pe30020315
!!!CDT: 1825-1892
!!!CNT: Polish
!!!OPR: Missa
!!!OTL: Agnus Dei
!!!OMV: 006
!!!PDT: 1873
!!!AGN: Sacred; Mass
!!!SMS-siglum: PL-CZ
!!!SMS-shelfmark: III-594b
!!!SMS-shelfwork: 001-006 M
!!!SMS-variant:
!!!SMS-altvar:
!!!NIFC-rismid: 300001137
!!!URL-scan: http://repozytorium.nifc.pl/skany/pl-cz-nut--iii-594
!!!ONB-nifc: UWAGA: części Mszy: Kyrie, Gloria, Credo, Sanctus, Benedictus, Agnus Dei. Uwaga: msza w źródle druga w kolejności, od skanu nr 0023, RISM ID 300001137.
!!!AIN: 1 bass 1 clars 1 flt 1 organ 1 soprn 1 tenor 1 timpa 2 tromp 3 violn
!!!key: c
**kern	**fba	**dynam	**kern	**dynam	**kern	**dynam	**kern	**dynam	**kern	**kern	**text	**dynam	**kern	**text	**dynam	**kern	**dynam	**kern	**kern	**kern	**kern	**dynam
*part12	*part12	*part12	*part11	*part11	*part10	*part10	*part9	*part9	*part8	*part7	*part7	*part7	*part6	*part6	*part6	*part5	*part5	*part4	*part3	*part2	*part1	*part1
*staff12	*	*	*staff11	*	*staff10	*	*staff9	*	*staff8	*staff7	*staff7	*	*staff6	*staff6	*	*staff5	*	*staff4	*staff3	*staff2	*staff1	*
*I"Organo	*	*	*I"Violino in F obligato	*	*I"Violino 2do.	*	*I"Violino 1mo	*	*I"Basso.	*I"Tenor	*	*	*I"Sopran	*	*	*I"Tympano in G:	*	*I"Clarino in C IIdo	*I"Clarino in C: 1mo	*I"Clarinetto i C	*I"Flauto	*
*I'org	*	*	*I'vl in F	*	*I'vl II	*	*I'vl I	*	*I'B	*I'T	*	*	*I'S	*	*	*I'timp	*	*I'clno II	*I'clno I	*I'cl	*I'fl	*
*ICklav	*	*	*ICstr	*	*ICstr	*	*ICstr	*	*ICvox	*ICvox	*	*	*ICvox	*	*	*ICidio	*	*ICbras	*ICbras	*ICww	*ICww	*
*Iorgan	*	*	*Ivioln	*	*Ivioln	*	*Ivioln	*	*Ibass	*Itenor	*	*	*Isoprn	*	*	*Itimpa	*	*Itromp	*Itromp	*Iclars	*Iflt	*
*clefF4	*	*	*clefG2	*	*clefG2	*	*clefG2	*	*clefF4	*clefG2	*	*	*clefC1	*	*	*clefF4	*	*clefG2	*clefG2	*clefG2	*clefG2	*
*	*	*	*ITrd4c7	*	*	*	*	*	*	*	*	*	*	*	*	*	*	*	*	*	*	*
*c:	*	*	*c:	*	*c:	*	*c:	*	*c:	*c:	*	*	*c:	*	*	*c:	*	*c:	*c:	*c:	*c:	*
*k[b-e-a-]	*	*	*k[b-e-a-]	*	*k[b-e-a-]	*	*k[b-e-a-]	*	*k[b-e-a-]	*k[b-e-a-]	*	*	*k[b-e-a-]	*	*	*k[]	*	*k[b-e-a-]	*k[b-e-a-]	*k[b-e-a-]	*k[b-e-a-]	*
*M4/4	*	*	*M4/4	*	*M4/4	*	*M4/4	*	*M4/4	*M4/4	*	*	*M4/4	*	*	*M4/4	*	*M4/4	*M4/4	*M4/4	*M4/4	*
*met(c)	*	*	*met(c)	*	*met(c)	*	*met(c)	*	*met(c)	*met(c)	*	*	*met(c)	*	*	*met(c)	*	*met(c)	*met(c)	*met(c)	*met(c)	*
=1	=1	=1	=1	=1	=1	=1	=1	=1	=1	=1	=1	=1	=1	=1	=1	=1	=1	=1	=1	=1	=1	=1
32qqGG/LLL	.	ff	32qqG/LLL	ff	32qqg/LLL	ff	(32qqgg\LLL	ff	.	.	.	.	.	.	.	.	.	.	.	.	32qqgg\LLL	.
32qqAAn/	.	.	32qqA/	.	32qqan/	.	32qqaan\	.	.	.	.	.	.	.	.	.	.	.	.	.	32qqaan\	.
!LO:TX:a:t=uniso&colon;	!	!	!	!	!	!	!	!	!	!LO:TX:a:B:t=Andate	!	!	!	!	!	!LO:TX:t=P:problem=brak znaków przy kluczu [problem #229]	!	!	!	!	!	!
!LO:TX:a:B:t=Andante	!	!	!LO:TX:a:B:t=andante	!	!LO:TX:a:B:t=Andante	!	!LO:TX:a:B:t=Andante	!	!LO:TX:t=P:problem=partia występuje w części "Et in carnatus."; fragment znajduje się na karcie nr 34 [druga strona partii Clarinetto]	!LO:TX:t=P:problem=partia zgodnie z RISM "zaginęła"; fragment znajduje się na karcie nr 34 [druga strona partii Clarinetto]	!	!	!LO:TX:t=P:problem=brak oznaczenia tempa	!	!	!LO:TX:a:t=6	!	!LO:TX:a:B:t=Agnus Tacet	!LO:TX:a:B:t=Agnus Tacet	!LO:TX:a:B:t=Agnus Tacet.	!LO:TX:a:B:t=Andate	!
32qqBBn/JJJ	.	.	32qqBX/JJJ	.	32qqbn/JJJ	.	32qqbbn\JJJ	.	.	.	.	.	.	.	.	.	.	.	.	.	32qqbbn\JJJ	.
!	!	!	!	!	!	!	!	!	!	!	!	!LO:DY:b	!	!	!LO:DY:b	!	!	!	!	!	!	!
1C	.	.	1c	.	1cc	.	1ccc)	.	1ryy	1cc	A-	ff	1cc	A-	ff	1r	.	1ryy	1ryy	1ryy	1ccc	.
=2	=2	=2	=2	=2	=2	=2	=2	=2	=2	=2	=2	=2	=2	=2	=2	=2	=2	=2	=2	=2	=2	=2
!	!	!	!	!	!	!	!LO:TX:t=P:all\right:problem	!	!	!LO:TX:t=P:all\right:problem	!	!	!LO:TX:t=P:all\right:problem	!	!	!	!	!	!	!	!LO:TX:t=P:all\right:problem	!
4C/	.	.	4c/	p	4c/	.	4cc\	p	1ryy	4cc\	-gnus	.	4cc\	-gnus	.	1r	.	1ryy	1ryy	1ryy	4cc\	.
4C/	10_ 8_ 5_	.	16G/LL	.	16c/LL	.	16e-/LL	.	.	4r	.	.	4r	.	.	.	.	.	.	.	4r	.
.	.	.	16G/	.	16c/	.	16e-/	.	.	.	.	.	.	.	.	.	.	.	.	.	.	.
.	.	.	16G/	.	16c/	.	16e-/	.	.	.	.	.	.	.	.	.	.	.	.	.	.	.
.	.	.	16G/JJ	.	16c/JJ	.	16e-/JJ	.	.	.	.	.	.	.	.	.	.	.	.	.	.	.
4C/	.	.	8G/	.	8c/	.	8e-/	.	.	2r	.	.	2r	.	.	.	.	.	.	.	2r	.
.	.	.	8r	.	8r	.	8r	.	.	.	.	.	.	.	.	.	.	.	.	.	.	.
*	*	*	*tremolo	*	*tremolo	*	*tremolo	*	*	*	*	*	*	*	*	*	*	*	*	*	*	*
!	!	!	!	!	!	!	!LO:TX:t=P:problem=cztery kropki pod tremolo	!	!	!	!	!	!	!	!	!	!	!	!	!	!	!
4C/	.	.	16G/LL	.	16c/LL	.	8e-/L	.	.	.	.	.	.	.	.	.	.	.	.	.	.	.
.	.	.	16G/	.	16c/	.	.	.	.	.	.	.	.	.	.	.	.	.	.	.	.	.
.	.	.	16G/	.	16c/	.	8e-/J	.	.	.	.	.	.	.	.	.	.	.	.	.	.	.
.	.	.	16G/JJ	.	16c/JJ	.	.	.	.	.	.	.	.	.	.	.	.	.	.	.	.	.
*	*	*	*Xtremolo	*	*Xtremolo	*	*Xtremolo	*	*	*	*	*	*	*	*	*	*	*	*	*	*	*
!	!	!	!	!	!LO:LB:g=original	!	!	!	!	!	!	!	!LO:LB:g=original	!	!	!	!	!	!	!	!	!
=3	=3	=3	=3	=3	=3	=3	=3	=3	=3	=3	=3	=3	=3	=3	=3	=3	=3	=3	=3	=3	=3	=3
!	!	!	!	!	!	!	!	!	!	!	!	!	!	!	!LO:DY:a	!	!	!	!	!	!	!
4BBn/	6 5 8	.	8G/	.	8d/	.	8f/	.	1ryy	4r	.	.	4r	.	ff	1r	.	1ryy	1ryy	1ryy	4r	.
.	.	.	8r	.	8r	.	8r	.	.	.	.	.	.	.	.	.	.	.	.	.	.	.
!LO:TX:a:t=uniso	!	!	!	!	!	!	!	!	!	!	!	!	!	!	!	!	!	!	!	!	!	!
2.D/	.	ff	2.d/	ff	2.dd\	ff	2.dd\	ff	.	2.dd\	A-	.	2.dd\	A-	.	.	.	.	.	.	2.ddd\	.
=4	=4	=4	=4	=4	=4	=4	=4	=4	=4	=4	=4	=4	=4	=4	=4	=4	=4	=4	=4	=4	=4	=4
4GG/	.	.	4G/	p	4g/	p	4g/	.	1ryy	4g/	-gnus	.	4g\	-gnus	.	1r	.	1ryy	1ryy	1ryy	4gg\	.
*	*	*	*tremolo	*	*tremolo	*	*tremolo	*	*	*	*	*	*	*	*	*	*	*	*	*	*	*
4BBn/	6_ 5_ 3_	p	16G/LL	.	16d/LL	.	16f/LL	.	.	4r	.	.	4r	.	.	.	.	.	.	.	4r	.
.	.	.	16G/	.	16d/	.	16f/	.	.	.	.	.	.	.	.	.	.	.	.	.	.	.
.	.	.	16G/	.	16d/	.	16f/	.	.	.	.	.	.	.	.	.	.	.	.	.	.	.
.	.	.	16G/JJ	.	16d/JJ	.	16f/JJ	.	.	.	.	.	.	.	.	.	.	.	.	.	.	.
*	*	*	*Xtremolo	*	*Xtremolo	*	*Xtremolo	*	*	*	*	*	*	*	*	*	*	*	*	*	*	*
4BB/	.	.	8G/	.	8d/	.	8f/	.	.	2r	.	.	2r	.	.	.	.	.	.	.	2r	.
.	.	.	8r	.	8r	.	8r	.	.	.	.	.	.	.	.	.	.	.	.	.	.	.
*	*	*	*tremolo	*	*tremolo	*	*tremolo	*	*	*	*	*	*	*	*	*	*	*	*	*	*	*
4BB/	.	.	16G/LL	.	16d/LL	.	16f/LL	.	.	.	.	.	.	.	.	.	.	.	.	.	.	.
.	.	.	16G/	.	16d/	.	16f/	.	.	.	.	.	.	.	.	.	.	.	.	.	.	.
.	.	.	16G/	.	16d/	.	16f/	.	.	.	.	.	.	.	.	.	.	.	.	.	.	.
.	.	.	16G/JJ	.	16d/JJ	.	16f/JJ	.	.	.	.	.	.	.	.	.	.	.	.	.	.	.
*	*	*	*Xtremolo	*	*Xtremolo	*	*Xtremolo	*	*	*	*	*	*	*	*	*	*	*	*	*	*	*
!	!	!	!LO:LB:g=original	!	!	!	!	!	!	!	!	!	!	!	!	!	!	!	!	!	!	!
=5	=5	=5	=5	=5	=5	=5	=5	=5	=5	=5	=5	=5	=5	=5	=5	=5	=5	=5	=5	=5	=5	=5
!	!	!	!	!LO:DY:a	!	!LO:DY:a	!	!	!	!	!	!LO:DY:a	!	!	!	!	!	!	!	!	!LO:TX:a:t=2	!
2C/	3	<	8G/L	<	8c/L	<	8e-/L	.	1ryy	4r	.	<	4r	.	.	1r	.	1ryy	1ryy	1ryy	1r	.
.	.	.	8c/	.	8e-/	.	8cc/	.	.	.	.	.	.	.	.	.	.	.	.	.	.	.
!	!	!	!	!	!	!	!	!	!	!	!	!	!	!	!LO:DY:a	!	!	!	!	!	!	!
.	.	.	8c/	.	8e-/	.	8cc/	.	.	2cc\	A-	.	2cc\	a-	<	.	.	.	.	.	.	.
.	.	.	8c/J	.	8e-/J	.	8cc/J	.	.	.	.	.	.	.	.	.	.	.	.	.	.	.
!LO:TX:a:t=lasto Solo	!	!	!	!	!	!	!	!	!	!	!	!	!	!	!	!	!	!	!	!	!	!
!LO:TX:t=P:all\right:problem	!	!	!	!	!	!	!	!	!	!	!	!	!	!	!	!	!	!	!	!	!	!
4E-\	.	.	8r	.	8r	.	8r	.	.	.	.	.	.	.	.	.	.	.	.	.	.	.
*	*	*	*tremolo	*	*tremolo	*	*tremolo	*	*	*	*	*	*	*	*	*	*	*	*	*	*	*
.	.	.	8c/L	.	8g/L	.	8cc\L	.	.	.	.	.	.	.	.	.	.	.	.	.	.	.
4En\	.	.	8c/	.	8g/	.	8cc\	.	.	4cc\	-gnus	.	4cc\	-gnus	.	.	.	.	.	.	.	.
.	.	.	8c/J	.	8g/J	.	8cc\J	.	.	.	.	.	.	.	.	.	.	.	.	.	.	.
=6	=6	=6	=6	=6	=6	=6	=6	=6	=6	=6	=6	=6	=6	=6	=6	=6	=6	=6	=6	=6	=6	=6
2F\	.	.	8r	.	8r	.	8r	.	1ryy	2cc\	De-	.	2cc\	De-	.	1r	.	1ryy	1ryy	1ryy	1r	.
.	.	.	8c/L 8f	.	8a-/L	.	8cc\L	.	.	.	.	.	.	.	.	.	.	.	.	.	.	.
.	.	.	8c/ 8f	.	8a-/	.	8cc\	.	.	.	.	.	.	.	.	.	.	.	.	.	.	.
.	.	.	8c/J 8f	.	8a-/J	.	8cc\J	.	.	.	.	.	.	.	.	.	.	.	.	.	.	.
2F#X\	.	[[	8r	.	8r	.	8r	.	.	4cc\	-i	.	4cc\	-i	.	.	.	.	.	.	.	.
.	.	.	8c/L	.	8e-X/L 8an	.	8cc\L	.	.	.	.	.	.	.	.	.	.	.	.	.	.	.
.	.	.	8c/	.	8e-/ 8a	.	8cc\	.	.	4cc\	qui	[[	4cc\	qui	[[	.	.	.	.	.	.	.
.	.	.	8c/J	[[	8e-/J 8a	[[	8cc\J	.	.	.	.	.	.	.	.	.	.	.	.	.	.	.
*	*	*	*Xtremolo	*	*Xtremolo	*	*Xtremolo	*	*	*	*	*	*	*	*	*	*	*	*	*	*	*
=7	=7	=7	=7	=7	=7	=7	=7	=7	=7	=7	=7	=7	=7	=7	=7	=7	=7	=7	=7	=7	=7	=7
!	!	!	!	!	!	!LO:DY:a	!	!	!	!LO:SIC:s=tol-	!	!LO:DY:a	!	!	!LO:DY:a	!	!	!	!	!	!	!
4GG\ 4G	6 4	fff	4d/ 4e-	fff	4g\ 4ee-	fff	4cc\ 4gg	fff	1ryy	2gg\	lol-	fff	2gg\	tol-	fff	4G\	>	1ryy	1ryy	1ryy	4ggg\	fff
4r	.	.	4r	.	4r	.	4r	.	.	.	.	.	.	.	.	2.G\	.	.	.	.	4r	.
2r	.	.	2r	.	2r	.	2r	.	.	4ee-\	-lis	.	4ee-\	-lis	.	.	.	.	.	.	2r	.
.	.	.	.	.	.	.	.	.	.	4cc\	pec-	.	4cc\	pec-	.	.	.	.	.	.	.	.
!	!	!	!	!	!	!	!LO:LB:g=original	!	!	!	!	!	!	!	!	!	!	!	!	!	!	!
=8	=8	=8	=8	=8	=8	=8	=8	=8	=8	=8	=8	=8	=8	=8	=8	=8	=8	=8	=8	=8	=8	=8
!LO:TX:a:t=1.	!	!	!LO:TX:a:t=1	!	!LO:TX:a:t=1	!	!LO:TX:a:t=1.	!	!	!	!	!	!	!	!	!	!	!	!	!	!LO:TX:a:t=4	!
1r	.	.	1r	.	1r	.	1r	.	1ryy	2g/	-ca-	.	2g\	-ca-	.	2.G\	.	1ryy	1ryy	1ryy	1r	.
.	.	.	.	.	.	.	.	.	.	4g/	-ta	.	4g\	-ta	.	.	.	.	.	.	.	.
.	.	.	.	.	.	.	.	.	.	4g/	pec-	.	4g\	pec-	.	4r	]]	.	.	.	.	.
=9	=9	=9	=9	=9	=9	=9	=9	=9	=9	=9	=9	=9	=9	=9	=9	=9	=9	=9	=9	=9	=9	=9
!LO:TX:a:t=tasto Solo	!	!	!	!	!	!	!	!	!	!	!	!	!	!	!	!	!	!	!	!	!	!
*	*	*	*tremolo	*	*tremolo	*	*tremolo	*	*	*	*	*	*	*	*	*	*	*	*	*	*	*
!	!	!	!	!	!	!	!	!	!	!	!	!LO:DY:a	!	!	!	!LO:TX:a:t=7	!	!	!	!	!	!
4.F\	.	p	16c/LL	p	16d/LL	p	16a-/LL	.	1ryy	2a-/	-ca-	p	2a-\	-ca-	p	1r	.	1ryy	1ryy	1ryy	1r	.
.	.	.	16c/	.	16d/	.	16a-/	.	.	.	.	.	.	.	.	.	.	.	.	.	.	.
.	.	.	16c/	.	16d/	.	16a-/	.	.	.	.	.	.	.	.	.	.	.	.	.	.	.
.	.	.	16c/JJ	.	16d/JJ	.	16a-/JJ	.	.	.	.	.	.	.	.	.	.	.	.	.	.	.
*	*	*	*Xtremolo	*	*Xtremolo	*	*Xtremolo	*	*	*	*	*	*	*	*	*	*	*	*	*	*	*
.	.	.	8c/	.	8d/	.	8a-/	.	.	.	.	.	.	.	.	.	.	.	.	.	.	.
8r	.	.	8r	.	8r	.	8r	.	.	.	.	.	.	.	.	.	.	.	.	.	.	.
*	*	*	*tremolo	*	*tremolo	*	*tremolo	*	*	*	*	*	*	*	*	*	*	*	*	*	*	*
4.F\	.	.	16c/LL	.	16d/LL	.	16a-/LL	.	.	2a-/	-ta	.	2a-\	-ta	.	.	.	.	.	.	.	.
.	.	.	16c/	.	16d/	.	16a-/	.	.	.	.	.	.	.	.	.	.	.	.	.	.	.
.	.	.	16c/	.	16d/	.	16a-/	.	.	.	.	.	.	.	.	.	.	.	.	.	.	.
.	.	.	16c/JJ	.	16d/JJ	.	16a-/JJ	.	.	.	.	.	.	.	.	.	.	.	.	.	.	.
*	*	*	*Xtremolo	*	*Xtremolo	*	*Xtremolo	*	*	*	*	*	*	*	*	*	*	*	*	*	*	*
.	.	.	8c/	.	8d/	.	8a-/	.	.	.	.	.	.	.	.	.	.	.	.	.	.	.
8r	.	.	8r	.	8r	.	8r	.	.	.	.	.	.	.	.	.	.	.	.	.	.	.
!	!	!	!	!	!	!	!	!	!	!LO:LB:g=original	!	!	!	!	!	!	!	!	!	!	!	!
=10	=10	=10	=10	=10	=10	=10	=10	=10	=10	=10	=10	=10	=10	=10	=10	=10	=10	=10	=10	=10	=10	=10
*	*	*	*tremolo	*	*tremolo	*	*tremolo	*	*	*	*	*	*	*	*	*	*	*	*	*	*	*
4.G\	.	.	16c/LL	.	16e-/LL	.	16g/LL	.	1ryy	1g	mun-	.	1g	mun-	.	1r	.	1ryy	1ryy	1ryy	1r	.
.	.	.	16c/	.	16e-/	.	16g/	.	.	.	.	.	.	.	.	.	.	.	.	.	.	.
.	.	.	16c/	.	16e-/	.	16g/	.	.	.	.	.	.	.	.	.	.	.	.	.	.	.
.	.	.	16c/JJ	.	16e-/JJ	.	16g/JJ	.	.	.	.	.	.	.	.	.	.	.	.	.	.	.
*	*	*	*Xtremolo	*	*Xtremolo	*	*Xtremolo	*	*	*	*	*	*	*	*	*	*	*	*	*	*	*
.	.	.	8c/	.	8e-/	.	8g/	.	.	.	.	.	.	.	.	.	.	.	.	.	.	.
8r	.	.	8r	.	8r	.	8r	.	.	.	.	.	.	.	.	.	.	.	.	.	.	.
!LO:N:vis=4	!	!	!	!	!	!	!	!	!	!	!	!	!	!	!	!	!	!	!	!	!	!
*	*	*	*tremolo	*	*tremolo	*	*tremolo	*	*	*	*	*	*	*	*	*	*	*	*	*	*	*
4.GG/	.	.	16BX/LL	.	16d/LL	.	16g/LL	.	.	.	.	.	.	.	.	.	.	.	.	.	.	.
.	.	.	16B/	.	16d/	.	16g/	.	.	.	.	.	.	.	.	.	.	.	.	.	.	.
.	.	.	16B/	.	16d/	.	16g/	.	.	.	.	.	.	.	.	.	.	.	.	.	.	.
.	.	.	16B/JJ	.	16d/JJ	.	16g/JJ	.	.	.	.	.	.	.	.	.	.	.	.	.	.	.
*	*	*	*Xtremolo	*	*Xtremolo	*	*Xtremolo	*	*	*	*	*	*	*	*	*	*	*	*	*	*	*
.	.	.	8B/	.	8d/	.	8g/	.	.	.	.	.	.	.	.	.	.	.	.	.	.	.
8r	.	.	8r	.	8r	.	8r	.	.	.	.	.	.	.	.	.	.	.	.	.	.	.
!LO:LB:g=original	!	!	!	!	!	!	!	!	!	!	!	!	!	!	!	!	!	!	!	!	!	!
=11	=11	=11	=11	=11	=11	=11	=11	=11	=11	=11	=11	=11	=11	=11	=11	=11	=11	=11	=11	=11	=11	=11
8C/	3_	.	8E-X/	.	8G/	.	8.c/L	.	1ryy	4cc\	-di	.	4c/	-di	.	1r	.	1ryy	1ryy	1ryy	1r	.
8r	.	.	8r	.	8r	.	.	.	.	.	.	.	.	.	.	.	.	.	.	.	.	.
.	.	.	.	.	.	.	16e-/Jk	.	.	.	.	.	.	.	.	.	.	.	.	.	.	.
8C/	.	.	4E-/	.	8G/	.	8.c/L	.	.	4r	.	.	4r	.	.	.	.	.	.	.	.	.
8r	.	.	.	.	8r	.	.	.	.	.	.	.	.	.	.	.	.	.	.	.	.	.
.	.	.	.	.	.	.	16e-/Jk	.	.	.	.	.	.	.	.	.	.	.	.	.	.	.
8C/	.	.	4r	.	4G/	.	4c/	.	.	2r	.	.	2r	.	.	.	.	.	.	.	.	.
8r	.	.	.	.	.	.	.	.	.	.	.	.	.	.	.	.	.	.	.	.	.	.
4r	.	.	4r	.	4r	.	4r	.	.	.	.	.	.	.	.	.	.	.	.	.	.	.
!	!	!	!	!	!LO:LB:g=original	!	!	!	!	!	!	!	!	!	!	!	!	!	!	!	!	!
=12	=12	=12	=12	=12	=12	=12	=12	=12	=12	=12	=12	=12	=12	=12	=12	=12	=12	=12	=12	=12	=12	=12
!LO:TX:a:t=tasto solo	!	!	!	!	!	!	!	!	!	!	!	!	!LO:TX:a:t=Solo	!	!	!	!	!	!	!	!LO:TX:a:t=Solo	!
2A-\	.	.	8r	.	8r	.	8r	.	1ryy	4.a-/	mi-	.	4.cc\	mi-	.	1r	.	1ryy	1ryy	1ryy	4.ccc\	.
*	*	*	*tremolo	*	*	*	*	*	*	*	*	*	*	*	*	*	*	*	*	*	*	*
!	!	!	!LO:TX:t=P:all\right:problem	!	!	!	!	!	!	!	!	!	!	!	!	!	!	!	!	!	!	!
*	*	*	*	*	*tremolo	*	*	*	*	*	*	*	*	*	*	*	*	*	*	*	*	*
.	.	.	8e-\L	.	8a-/L	.	8cc\L	.	.	.	.	.	.	.	.	.	.	.	.	.	.	.
.	.	.	8e-\	.	8a-/	.	8cc\	.	.	.	.	.	.	.	.	.	.	.	.	.	.	.
.	.	.	8e-\J	.	8a-/J	.	8cc\J	.	.	8a-/	-se-	.	8cc\	-se-	.	.	.	.	.	.	8ccc\	.
2G\	.	.	8r	.	8r	.	8r	.	.	4g/	-re-	.	4ee-\	-re-	.	.	.	.	.	.	4eee-\	.
.	.	.	8e-\L	.	8b-\L	.	8ee-\L	.	.	.	.	.	.	.	.	.	.	.	.	.	.	.
.	.	.	8e-\	.	8b-\	.	8ee-\	.	.	4g/	-re	.	4dd-X\	-re	.	.	.	.	.	.	4ddd-X\	.
.	.	.	8e-\J	.	8b-\J	.	8dd-X\J	.	.	.	.	.	.	.	.	.	.	.	.	.	.	.
=13	=13	=13	=13	=13	=13	=13	=13	=13	=13	=13	=13	=13	=13	=13	=13	=13	=13	=13	=13	=13	=13	=13
*	*	*	*rep	*	*rep	*	*rep	*	*	*rep	*	*	*rep	*	*	*	*	*	*	*	*	*
2A-\	.	.	8r	.	8r	.	8r	.	1ryy	4.a-/	mi-	.	4.cc\	mi-	.	1r	.	1ryy	1ryy	1ryy	4.ccc\	.
.	.	.	8e-\L	.	8a-/L	.	8cc\L	.	.	.	.	.	.	.	.	.	.	.	.	.	.	.
.	.	.	8e-\	.	8a-/	.	8cc\	.	.	.	.	.	.	.	.	.	.	.	.	.	.	.
.	.	.	8e-\J	.	8a-/J	.	8cc\J	.	.	8a-/	-se-	.	8cc\	-se-	.	.	.	.	.	.	8ccc\	.
2G\	.	.	8r	.	8r	.	8r	.	.	4g/	-re-	.	4ee-\	-re-	.	.	.	.	.	.	4eee-X\	.
.	.	.	8e-\L	.	8b-\L	.	8ee-\L	.	.	.	.	.	.	.	.	.	.	.	.	.	.	.
.	.	.	8e-\	.	8b-\	.	8ee-\	.	.	4g/	-re	.	4dd-X\	-re	.	.	.	.	.	.	4ddd-X\	.
.	.	.	8e-\J	.	8b-\J	.	8dd-X\J	.	.	.	.	.	.	.	.	.	.	.	.	.	.	.
*	*	*	*Xrep	*	*Xrep	*	*Xrep	*	*	*Xrep	*	*	*Xrep	*	*	*	*	*	*	*	*	*
!	!	!	!	!	!	!	!	!	!	!	!	!	!LO:LB:g=original	!	!	!	!	!	!	!	!	!
=14	=14	=14	=14	=14	=14	=14	=14	=14	=14	=14	=14	=14	=14	=14	=14	=14	=14	=14	=14	=14	=14	=14
*	*	*	*rep	*	*	*	*	*	*	*	*	*	*	*	*	*	*	*	*	*	*	*
2A-\	.	.	8r	.	8r	.	8r	.	1ryy	4.a-/	mi-	.	4.cc\	mi-	.	1r	.	1ryy	1ryy	1ryy	4.ccc\	.
.	.	.	8e-\L	.	8f#X/L	.	8cc\L	.	.	.	.	.	.	.	.	.	.	.	.	.	.	.
.	.	.	8e-\	.	8f#/	.	8cc\	.	.	.	.	.	.	.	.	.	.	.	.	.	.	.
.	.	.	8e-\J	.	8f#/J	.	8bn\J	.	.	8a-/	-se-	.	8bn\	-se-	.	.	.	.	.	.	8bbn\	.
2A-\	.	.	8r	.	8r	.	8r	.	.	4a-/	-re-	.	4cc\	-re-	.	.	.	.	.	.	4ccc\	.
*	*	*	*	*	*	*	*tremolo	*	*	*	*	*	*	*	*	*	*	*	*	*	*	*
.	.	.	8e-\L	.	8f#/L	.	8cc\L	.	.	.	.	.	.	.	.	.	.	.	.	.	.	.
.	.	.	8e-\	.	8f#/	.	8cc\	.	.	4a-/	-re	.	4dd\	-re	.	.	.	.	.	.	4ddd\	.
.	.	.	8e-\J	.	8f#/J	.	8cc\J	.	.	.	.	.	.	.	.	.	.	.	.	.	.	.
*	*	*	*Xrep	*	*Xtremolo	*	*Xtremolo	*	*	*	*	*	*	*	*	*	*	*	*	*	*	*
!	!	!	!LO:LB:g=original	!	!	!	!	!	!	!	!	!	!	!	!	!	!	!	!	!	!	!
=15	=15	=15	=15	=15	=15	=15	=15	=15	=15	=15	=15	=15	=15	=15	=15	=15	=15	=15	=15	=15	=15	=15
!	!	!	!	!	!	!	!	!	!	!	!	!	!	!	!	!LO:TX:b:t=Fine	!	!	!	!	!	!
4G\	.	.	4BX/ 4d	.	4G/ 4g	.	4d/ 4bn	.	1ryy	4g/	no-	.	4bn\	no-	.	1r	.	1ryy	1ryy	1ryy	4ggn\	.
4G\	5 n3	.	4B/ 4d	.	4G/ 4g	.	4G/ 4g	.	.	4g/	-bis	.	4g\	-bis	.	.	.	.	.	.	2r;	.
!LO:TX:a:t=Dona Nobis ut Gloryja Fine.	!	!	!LO:TX:a:t=Dona Nobis ut Glorija	!	!LO:TX:a:t=Dona Nobis ut Glorya.	!	!LO:TX:a:t=Dona ut Glorija	!	!	!LO:TX:a:t=Dona Nobis ut Glorya	!	!	!LO:TX:a:t=Dona Nobis ut Gloria	!	!	!	!	!	!	!	!	!
2r;	.	.	2r;	.	2r;	.	2r;	.	.	2r;	.	.	2r;	.	.	.	.	.	.	.	.	.
!	!	!	!	!	!	!	!	!	!	!	!	!	!	!	!	!	!	!	!	!	!LO:TX:a:t=Dona Nobis ut Gloryja	!
.	.	.	.	.	.	.	.	.	.	.	.	.	.	.	.	.	.	.	.	.	4r	.
==	==	==	==	==	==	==	==	==	==	==	==	==	==	==	==	==	==	==	==	==	==	==
*-	*-	*-	*-	*-	*-	*-	*-	*-	*-	*-	*-	*-	*-	*-	*-	*-	*-	*-	*-	*-	*-	*-
!!!system-decoration: [(s1,s2)][(s3,s4)][(s5)][(s6,s7,s8)][(s9,s10,s11)]s12
!!!ENC: Andrzej Kubiczek
!!!END: 2020-10-24
!!!ENC: Jan Barakat
!!!END: 2022-02-10
